src/DGFullScreen/skin/light/img/DGRoundControl__fullscreenIcon_light.svg

<svg xmlns="http://www.w3.org/2000/svg" width="16" height="16"><path fill="#4E4E4E" d="M6 1h-5v5h2v-3h3z"/><path fill="#fff" d="M9 13h6v3h-6z"/><path fill="#464646" d="M10 15h5v-5h-2v3h-3z"/><path fill="#4E4E4E" d="M15 6v-5h-5v2h3v3z"/><path fill="#fff" d="M1 13h6v3h-6z"/><path fill="#464646" d="M1 10v5h5v-2h-3v-3z"/><path fill="#fff" d="M12 10h1v3h-1zM3 10h1v3h-1z"/></svg>

<svg xmlns="http://www.w3.org/2000/svg" width="16" height="16">
    <path d="M 6,1 H 1 V 6 H 3 V 3 h 3 z" fill="#4e4e4e"/>
    <path d="m 9,13 h 6 v 3 H 9 z" fill="#fff"/>
    <path d="m 10,15 h 5 v -5 h -2 v 3 h -3 z" fill="#464646"/>
    <path d="M 15,6 V 1 h -5 v 2 h 3 v 3 z" fill="#4e4e4e"/>
    <path d="m 1,13 h 6 v 3 H 1 z" fill="#fff"/>
    <path d="m 1,10 v 5 H 6 V 13 H 3 v -3 z" fill="#464646"/>
    <path d="m 12,10 h 1 v 3 h -1 z m -9,0 h 1 v 3 H 3 z" fill="#fff"/>
</svg>
